X:14
T:Sporting Nell
D:Mick O'Brien: May Morning Dew (1996)
Z:Gwenaël Lambrouin, 2016-12, d'après l'interprétation de Cyrille 
R:reel
M:2/2
K:Dmix
|: ADED A2dc | ABAG EFG2 | ADED A2dc |1 AcGE EDEG :|2 AcGE EDD2 | 
K:Amix
  cdec d2ed | cdef gedB | cdec dfed | cAGE EDD2 |
  cdec dfed | cdef g2gd | eaag efd=c | ABAG EFG2 ||

